X: 1222
T: SEVILLE WALTZ
B: Oliver Ditson "The Boston Collection of Instrumental Music" 1910 p.122 #2
F: http://conquest.imslp.info/files/imglnks/usimg/8/8f/IMSLP175643-PMLP309456-bostoncollection00bost_bw.pdf
%: 2012 John Chambers <jc:trillian.mit.edu>
M: 3/8
L: 1/16
K: G
(Bc) |\
.d2(ded^c) | d2"_>"g4 | .B2(BcB^A) | B2"^>"d4 |\
(GABc).d.e | e4d2 | (fedc).B.A | G4 H:|
|: dd |\
(^cd).d.d.d.d | (^cd).d.d.d.d | gfedcB | dccccc |\
(Bc).c.c.c.c | (Bc).c.c.c.c | (fedc).B.A | G4 :|
|: Gc |\
.e2e(=fe^d) | "^>"e4d2 | .c2(cdcB) | "^>"c4B2 |\
A2B2c2 | e4d2 | (fedc).B.A | G4 :|
|: d>d |\
f3ecA | e3dBG | d3cAF | (GABc).d.e |\
f3ecA | e3dBG | d3cAF | G4 "^D.C.":|

%%sep 1 1 500
%%sep 1 1 500
